images/GBPe.svg

<svg height="250" viewBox="0 0 250 250" width="250" xmlns="http://www.w3.org/2000/svg" xmlns:xlink="http://www.w3.org/1999/xlink"><linearGradient id="a" gradientUnits="userSpaceOnUse" x1="67.11910967797" x2="182.88077013453" y1="24.74608108" y2="225.25379433797"><stop offset="0" stop-color="#0095d7"/><stop offset="1" stop-color="#0072aa"/></linearGradient><path d="m249.511719 125c0 68.765625-55.746094 124.511719-124.511719 124.511719s-124.511719-55.746094-124.511719-124.511719 55.746094-124.511719 124.511719-124.511719 124.511719 55.746094 124.511719 124.511719zm0 0" fill="#fff"/><path d="m240.746094 125c0 63.925781-51.820313 115.746094-115.746094 115.746094s-115.746094-51.820313-115.746094-115.746094 51.820313-115.746094 115.746094-115.746094 115.746094 51.820313 115.746094 115.746094zm0 0" fill="url(#a)"/><path d="m168.328125 192.789062-5.195313-14.914062c-.058593-.765625-.695312-1.355469-1.460937-1.351562-.167969 0-.335937.035156-.492187.09375-5.292969 1.6875-10.820313 2.53125-16.378907 2.496093-5.664062.03125-11.289062-.914062-16.632812-2.792969-6-2.144531-12.296875-3.347656-18.664063-3.566406 3.226563-4.464844 5.890625-9.3125 7.929688-14.433594 1.691406-4.160156 3.839844-14.921874 3.839844-21.089843v-2.261719h33.34375c.8125 0 1.46875-.652344 1.46875-1.460938v-14.253906c0-.808594-.65625-1.464844-1.46875-1.464844h-37.355469l-.5625-1.421874c-1.121094-2.792969-2.359375-5.511719-3.675781-8.082032-1.359376-2.644531-2.640626-5.277344-3.804688-7.8125-1.148438-2.492187-2.148438-5.050781-2.996094-7.660156-.847656-2.582031-1.28125-5.28125-1.289062-8 0-5.609375 1.921875-10.378906 5.710937-14.15625 3.789063-3.78125 8.703125-5.714844 14.597657-5.714844 5.65625 0 11.476562 1.628906 17.335937 4.882813 4.339844 2.410156 8.242187 5.535156 11.542969 9.238281.277344.3125.675781.488281 1.09375.488281.425781-.003906.828125-.191406 1.105468-.511719l10.117188-11.855468c.460938-.546875.460938-1.347656 0-1.894532-4.710938-5.589843-10.484375-10.179687-16.988281-13.511718-7.351563-3.800782-15.507813-5.78125-23.785157-5.765625-5.628906-.042969-11.222656.929687-16.507812 2.863281-4.886719 1.78125-9.417969 4.410156-13.390625 7.765625-3.714844 3.164063-6.742187 7.050781-8.898437 11.425781-2.136719 4.34375-3.234376 9.125-3.203126 13.964844-.015624 5.609375 1.195313 11.152344 3.546876 16.246094 2.402343 5.222656 4.96875 10.710937 7.617187 16.308594l1.535156 3.226562h-15.308593c-.808594 0-1.464844.65625-1.464844 1.464844v14.253906c0 .808594.65625 1.464844 1.464844 1.464844h20.238281v2.261718c.082031 8.074219-1.988281 16.03125-5.996094 23.046876-3.757813 6.53125-10.101563 12.503906-16.394531 17.984374-.375.328126-.558594.820313-.488282 1.3125.046876.382813.246094.734376.554688.976563l.035156.066406 6.914063 14.101563c.023437.140625.066406.277344.132812.40625.355469.71875 1.230469 1.015625 1.953125.664062 5.597656-2.390625 11.621094-3.613281 17.703125-3.605468 4.636719-.019532 9.242188.765624 13.613281 2.316406 7.710938 2.730468 15.832032 4.109375 24.007813 4.074218 13.757813 0 23.734375-3.757812 24.152344-3.90625.367187-.136718.664062-.414062.824219-.773437.160156-.359375.167968-.769531.027343-1.132813zm0 0" fill="#fff"/></svg>

<svg xmlns="http://www.w3.org/2000/svg" xmlns:xlink="http://www.w3.org/1999/xlink" width="250px" height="250px" viewBox="0 0 250 250" version="1.1">
<defs>
<linearGradient id="linear0" gradientUnits="userSpaceOnUse" x1="137.460007" y1="50.68" x2="374.540009" y2="461.320007" gradientTransform="matrix(0.488281,0,0,0.488281,0,0)">
<stop offset="0" style="stop-color:rgb(0%,58.431375%,84.313726%);stop-opacity:1;"/>
<stop offset="1" style="stop-color:rgb(0%,44.705883%,66.666669%);stop-opacity:1;"/>
</linearGradient>
</defs>
<g id="surface1">
<path style=" stroke:none;fill-rule:nonzero;fill:rgb(100%,100%,100%);fill-opacity:1;" d="M 249.511719 125 C 249.511719 193.765625 193.765625 249.511719 125 249.511719 C 56.234375 249.511719 0.488281 193.765625 0.488281 125 C 0.488281 56.234375 56.234375 0.488281 125 0.488281 C 193.765625 0.488281 249.511719 56.234375 249.511719 125 Z M 249.511719 125 "/>
<path style=" stroke:none;fill-rule:nonzero;fill:url(#linear0);" d="M 240.746094 125 C 240.746094 188.925781 188.925781 240.746094 125 240.746094 C 61.074219 240.746094 9.253906 188.925781 9.253906 125 C 9.253906 61.074219 61.074219 9.253906 125 9.253906 C 188.925781 9.253906 240.746094 61.074219 240.746094 125 Z M 240.746094 125 "/>
<path style=" stroke:none;fill-rule:nonzero;fill:rgb(100%,100%,100%);fill-opacity:1;" d="M 168.328125 192.789062 L 163.132812 177.875 C 163.074219 177.109375 162.4375 176.519531 161.671875 176.523438 C 161.503906 176.523438 161.335938 176.558594 161.179688 176.617188 C 155.886719 178.304688 150.359375 179.148438 144.800781 179.113281 C 139.136719 179.144531 133.511719 178.199219 128.167969 176.320312 C 122.167969 174.175781 115.871094 172.972656 109.503906 172.753906 C 112.730469 168.289062 115.394531 163.441406 117.433594 158.320312 C 119.125 154.160156 121.273438 143.398438 121.273438 137.230469 L 121.273438 134.96875 L 154.617188 134.96875 C 155.429688 134.96875 156.085938 134.316406 156.085938 133.507812 L 156.085938 119.253906 C 156.085938 118.445312 155.429688 117.789062 154.617188 117.789062 L 117.261719 117.789062 L 116.699219 116.367188 C 115.578125 113.574219 114.339844 110.855469 113.023438 108.285156 C 111.664062 105.640625 110.382812 103.007812 109.21875 100.472656 C 108.070312 97.980469 107.070312 95.421875 106.222656 92.8125 C 105.375 90.230469 104.941406 87.53125 104.933594 84.8125 C 104.933594 79.203125 106.855469 74.433594 110.644531 70.65625 C 114.433594 66.875 119.347656 64.941406 125.242188 64.941406 C 130.898438 64.941406 136.71875 66.570312 142.578125 69.824219 C 146.917969 72.234375 150.820312 75.359375 154.121094 79.0625 C 154.398438 79.375 154.796875 79.550781 155.214844 79.550781 C 155.640625 79.546875 156.042969 79.359375 156.320312 79.039062 L 166.4375 67.183594 C 166.898438 66.636719 166.898438 65.835938 166.4375 65.289062 C 161.726562 59.699219 155.953125 55.109375 149.449219 51.777344 C 142.097656 47.976562 133.941406 45.996094 125.664062 46.011719 C 120.035156 45.96875 114.441406 46.941406 109.15625 48.875 C 104.269531 50.65625 99.738281 53.285156 95.765625 56.640625 C 92.050781 59.804688 89.023438 63.691406 86.867188 68.066406 C 84.730469 72.410156 83.632812 77.191406 83.664062 82.03125 C 83.648438 87.640625 84.859375 93.183594 87.210938 98.277344 C 89.613281 103.5 92.179688 108.988281 94.828125 114.585938 L 96.363281 117.8125 L 81.054688 117.8125 C 80.246094 117.8125 79.589844 118.46875 79.589844 119.277344 L 79.589844 133.53125 C 79.589844 134.339844 80.246094 134.996094 81.054688 134.996094 L 101.292969 134.996094 L 101.292969 137.257812 C 101.375 145.332031 99.304688 153.289062 95.296875 160.304688 C 91.539062 166.835938 85.195312 172.808594 78.902344 178.289062 C 78.527344 178.617188 78.34375 179.109375 78.414062 179.601562 C 78.460938 179.984375 78.660156 180.335938 78.96875 180.578125 L 79.003906 180.644531 L 85.917969 194.746094 C 85.941406 194.886719 85.984375 195.023438 86.050781 195.152344 C 86.40625 195.871094 87.28125 196.167969 88.003906 195.816406 C 93.601562 193.425781 99.625 192.203125 105.707031 192.210938 C 110.34375 192.191406 114.949219 192.976562 119.320312 194.527344 C 127.03125 197.257812 135.152344 198.636719 143.328125 198.601562 C 157.085938 198.601562 167.0625 194.84375 167.480469 194.695312 C 167.847656 194.558594 168.144531 194.28125 168.304688 193.921875 C 168.464844 193.5625 168.472656 193.152344 168.332031 192.789062 Z M 168.328125 192.789062 "/>
</g>
</svg>
